X:1
T:Lesson 3 - Key Signatures - Exercise 3
M:C
K:A
L:1/4
vA B c d|e f g a|a g f e|d c B A|A B c d|e f g a|a g f e|d c B A|]
